images/3234232.svg

<?xml version="1.0" encoding="UTF-8"?>
<svg xmlns="http://www.w3.org/2000/svg" xmlns:xlink="http://www.w3.org/1999/xlink" width="300pt" height="300pt" viewBox="0 0 300 300" version="1.1">
<defs>
<g>
<symbol overflow="visible" id="glyph0-0">
<path style="stroke:none;" d="M 0.453125 1.59375 L 0.453125 -6.34375 L 4.953125 -6.34375 L 4.953125 1.59375 Z M 0.953125 1.09375 L 4.453125 1.09375 L 4.453125 -5.84375 L 0.953125 -5.84375 Z M 0.953125 1.09375 "/>
</symbol>
<symbol overflow="visible" id="glyph0-1">
<path style="stroke:none;" d="M 3.546875 -5.953125 C 2.898438 -5.953125 2.382812 -5.710938 2 -5.234375 C 1.625 -4.753906 1.4375 -4.101562 1.4375 -3.28125 C 1.4375 -2.445312 1.625 -1.789062 2 -1.3125 C 2.382812 -0.832031 2.898438 -0.59375 3.546875 -0.59375 C 4.191406 -0.59375 4.703125 -0.832031 5.078125 -1.3125 C 5.453125 -1.789062 5.640625 -2.445312 5.640625 -3.28125 C 5.640625 -4.101562 5.453125 -4.753906 5.078125 -5.234375 C 4.703125 -5.710938 4.191406 -5.953125 3.546875 -5.953125 Z M 3.546875 -6.6875 C 4.460938 -6.6875 5.195312 -6.375 5.75 -5.75 C 6.300781 -5.132812 6.578125 -4.3125 6.578125 -3.28125 C 6.578125 -2.238281 6.300781 -1.410156 5.75 -0.796875 C 5.195312 -0.179688 4.460938 0.125 3.546875 0.125 C 2.617188 0.125 1.878906 -0.179688 1.328125 -0.796875 C 0.773438 -1.410156 0.5 -2.238281 0.5 -3.28125 C 0.5 -4.3125 0.773438 -5.132812 1.328125 -5.75 C 1.878906 -6.375 2.617188 -6.6875 3.546875 -6.6875 Z M 3.546875 -6.6875 "/>
</symbol>
<symbol overflow="visible" id="glyph0-2">
<path style="stroke:none;" d="M 0.890625 -6.5625 L 2.078125 -6.5625 L 4.984375 -1.078125 L 4.984375 -6.5625 L 5.84375 -6.5625 L 5.84375 0 L 4.65625 0 L 1.75 -5.484375 L 1.75 0 L 0.890625 0 Z M 0.890625 -6.5625 "/>
</symbol>
<symbol overflow="visible" id="glyph0-3">
<path style="stroke:none;" d="M 0.890625 -6.5625 L 1.765625 -6.5625 L 1.765625 -3.875 L 5 -3.875 L 5 -6.5625 L 5.890625 -6.5625 L 5.890625 0 L 5 0 L 5 -3.125 L 1.765625 -3.125 L 1.765625 0 L 0.890625 0 Z M 0.890625 -6.5625 "/>
</symbol>
<symbol overflow="visible" id="glyph0-4">
<path style="stroke:none;" d="M 0.890625 -6.5625 L 4.65625 -6.5625 L 4.65625 -5.8125 L 1.765625 -5.8125 L 1.765625 -3.875 L 4.375 -3.875 L 4.375 -3.140625 L 1.765625 -3.140625 L 1.765625 0 L 0.890625 0 Z M 0.890625 -6.5625 "/>
</symbol>
</g>
</defs>
<g id="surface31113">
<rect x="0" y="0" width="300" height="300" style="fill:rgb(100%,100%,100%);fill-opacity:1;stroke:none;"/>
<path style="fill:none;stroke-width:1.2;stroke-linecap:butt;stroke-linejoin:miter;stroke:rgb(0%,0%,0%);stroke-opacity:1;stroke-miterlimit:10;" d="M 35.25 211.53125 L 47.210938 207.476562 "/>
<path style="fill:none;stroke-width:1.2;stroke-linecap:butt;stroke-linejoin:miter;stroke:rgb(100%,0%,0%);stroke-opacity:1;stroke-miterlimit:10;" d="M 47.210938 207.476562 L 59.171875 203.425781 "/>
<path style="fill:none;stroke-width:1.2;stroke-linecap:butt;stroke-linejoin:miter;stroke:rgb(100%,0%,0%);stroke-opacity:1;stroke-miterlimit:10;" d="M 59.171875 203.425781 L 61.644531 191.039062 "/>
<path style="fill:none;stroke-width:1.2;stroke-linecap:butt;stroke-linejoin:miter;stroke:rgb(0%,0%,0%);stroke-opacity:1;stroke-miterlimit:10;" d="M 61.644531 191.039062 L 64.117188 178.65625 "/>
<path style=" stroke:none;fill-rule:nonzero;fill:rgb(100%,100%,100%);fill-opacity:1;" d="M 55.171875 197.925781 L 63.171875 197.925781 L 63.171875 208.925781 L 55.171875 208.925781 Z M 55.171875 197.925781 "/>
<g style="fill:rgb(100%,0%,0%);fill-opacity:1;">
  <use xlink:href="#glyph0-1" x="55.171875" y="206.588867"/>
</g>
<path style="fill:none;stroke-width:1.2;stroke-linecap:butt;stroke-linejoin:miter;stroke:rgb(0%,0%,0%);stroke-opacity:1;stroke-miterlimit:10;" d="M 64.117188 178.65625 L 88.039062 170.550781 "/>
<path style="fill:none;stroke-width:1.2;stroke-linecap:butt;stroke-linejoin:miter;stroke:rgb(0%,0%,0%);stroke-opacity:1;stroke-miterlimit:10;" d="M 86.078125 172.78125 L 95.570312 181.117188 "/>
<path style="fill:none;stroke-width:1.2;stroke-linecap:butt;stroke-linejoin:miter;stroke:rgb(100%,0%,0%);stroke-opacity:1;stroke-miterlimit:10;" d="M 95.570312 181.117188 L 105.058594 189.449219 "/>
<path style="fill:none;stroke-width:1.2;stroke-linecap:butt;stroke-linejoin:miter;stroke:rgb(0%,0%,0%);stroke-opacity:1;stroke-miterlimit:10;" d="M 90 168.316406 L 99.492188 176.648438 "/>
<path style="fill:none;stroke-width:1.2;stroke-linecap:butt;stroke-linejoin:miter;stroke:rgb(100%,0%,0%);stroke-opacity:1;stroke-miterlimit:10;" d="M 99.492188 176.648438 L 108.980469 184.984375 "/>
<path style="fill:none;stroke-width:1.2;stroke-linecap:butt;stroke-linejoin:miter;stroke:rgb(0%,0%,0%);stroke-opacity:1;stroke-miterlimit:10;" d="M 88.039062 170.550781 L 90.511719 158.164062 "/>
<path style="fill:none;stroke-width:1.2;stroke-linecap:butt;stroke-linejoin:miter;stroke:rgb(0%,0%,100%);stroke-opacity:1;stroke-miterlimit:10;" d="M 90.511719 158.164062 L 92.984375 145.777344 "/>
<path style=" stroke:none;fill-rule:nonzero;fill:rgb(100%,100%,100%);fill-opacity:1;" d="M 103.019531 181.714844 L 111.019531 181.714844 L 111.019531 192.714844 L 103.019531 192.714844 Z M 103.019531 181.714844 "/>
<g style="fill:rgb(100%,0%,0%);fill-opacity:1;">
  <use xlink:href="#glyph0-1" x="103.019531" y="190.37793"/>
</g>
<path style="fill:none;stroke-width:1.2;stroke-linecap:butt;stroke-linejoin:miter;stroke:rgb(0%,0%,100%);stroke-opacity:1;stroke-miterlimit:10;" d="M 92.984375 145.777344 L 83.492188 137.445312 "/>
<path style="fill:none;stroke-width:1.2;stroke-linecap:butt;stroke-linejoin:miter;stroke:rgb(0%,0%,0%);stroke-opacity:1;stroke-miterlimit:10;" d="M 83.492188 137.445312 L 74.003906 129.113281 "/>
<path style="fill:none;stroke-width:1.2;stroke-linecap:butt;stroke-linejoin:miter;stroke:rgb(0%,0%,0%);stroke-opacity:1;stroke-miterlimit:10;" d="M 116.90625 137.675781 L 104.945312 141.726562 "/>
<path style="fill:none;stroke-width:1.2;stroke-linecap:butt;stroke-linejoin:miter;stroke:rgb(0%,0%,100%);stroke-opacity:1;stroke-miterlimit:10;" d="M 104.945312 141.726562 L 92.984375 145.777344 "/>
<path style=" stroke:none;fill-rule:nonzero;fill:rgb(100%,100%,100%);fill-opacity:1;" d="M 89.984375 140.277344 L 96.984375 140.277344 L 96.984375 151.277344 L 89.984375 151.277344 Z M 89.984375 140.277344 "/>
<g style="fill:rgb(0%,0%,100%);fill-opacity:1;">
  <use xlink:href="#glyph0-2" x="89.984375" y="148.94043"/>
</g>
<path style="fill:none;stroke-width:1.2;stroke-linecap:butt;stroke-linejoin:miter;stroke:rgb(0%,0%,0%);stroke-opacity:1;stroke-miterlimit:10;" d="M 74.003906 129.113281 L 78.945312 104.34375 "/>
<path style="fill:none;stroke-width:1.2;stroke-linecap:butt;stroke-linejoin:miter;stroke:rgb(0%,0%,0%);stroke-opacity:1;stroke-miterlimit:10;" d="M 78.945312 104.34375 L 102.871094 96.238281 "/>
<path style="fill:none;stroke-width:1;stroke-linecap:butt;stroke-linejoin:miter;stroke:rgb(0%,0%,0%);stroke-opacity:1;stroke-miterlimit:10;" d="M 121.851562 112.902344 L 121.851562 112.902344 M 119.972656 110.5625 L 119.285156 111.347656 M 118.097656 108.222656 L 116.722656 109.789062 M 116.222656 105.878906 L 114.15625 108.230469 M 114.347656 103.539062 L 111.59375 106.671875 M 112.46875 101.199219 L 109.03125 105.117188 M 110.59375 98.855469 L 106.464844 103.558594 M 108.71875 96.515625 L 103.902344 102 M 106.84375 94.175781 L 101.339844 100.445312 M 105.8125 92.886719 L 99.929688 99.585938 "/>
<path style="fill:none;stroke-width:1.2;stroke-linecap:butt;stroke-linejoin:miter;stroke:rgb(0%,0%,0%);stroke-opacity:1;stroke-miterlimit:10;" d="M 121.851562 112.902344 L 116.90625 137.675781 "/>
<path style="fill:none;stroke-width:1.2;stroke-linecap:butt;stroke-linejoin:miter;stroke:rgb(0%,0%,0%);stroke-opacity:1;stroke-miterlimit:10;" d="M 121.851562 112.902344 L 129.355469 88.785156 "/>
<path style="fill:none;stroke-width:1.2;stroke-linecap:butt;stroke-linejoin:miter;stroke:rgb(0%,0%,0%);stroke-opacity:1;stroke-miterlimit:10;" d="M 142.46875 127.496094 L 121.851562 112.902344 "/>
<path style="fill:none;stroke-width:1.2;stroke-linecap:butt;stroke-linejoin:miter;stroke:rgb(0%,0%,0%);stroke-opacity:1;stroke-miterlimit:10;" d="M 129.355469 88.785156 L 154.613281 88.46875 "/>
<path style="fill:none;stroke-width:1.2;stroke-linecap:butt;stroke-linejoin:miter;stroke:rgb(0%,0%,0%);stroke-opacity:1;stroke-miterlimit:10;" d="M 154.613281 88.46875 L 158.664062 100.433594 "/>
<path style="fill:none;stroke-width:1.2;stroke-linecap:butt;stroke-linejoin:miter;stroke:rgb(0%,0%,100%);stroke-opacity:1;stroke-miterlimit:10;" d="M 158.664062 100.433594 L 162.71875 112.394531 "/>
<path style="fill:none;stroke-width:1.2;stroke-linecap:butt;stroke-linejoin:miter;stroke:rgb(0%,0%,100%);stroke-opacity:1;stroke-miterlimit:10;" d="M 162.71875 112.394531 L 152.59375 119.945312 "/>
<path style="fill:none;stroke-width:1.2;stroke-linecap:butt;stroke-linejoin:miter;stroke:rgb(0%,0%,0%);stroke-opacity:1;stroke-miterlimit:10;" d="M 152.59375 119.945312 L 142.46875 127.496094 "/>
<path style="fill:none;stroke-width:1.2;stroke-linecap:butt;stroke-linejoin:miter;stroke:rgb(0%,0%,100%);stroke-opacity:1;stroke-miterlimit:10;" d="M 162.71875 112.394531 L 174.777344 116.148438 "/>
<path style="fill:none;stroke-width:1.2;stroke-linecap:butt;stroke-linejoin:miter;stroke:rgb(0%,0%,0%);stroke-opacity:1;stroke-miterlimit:10;" d="M 174.777344 116.148438 L 186.835938 119.898438 "/>
<path style=" stroke:none;fill-rule:nonzero;fill:rgb(100%,100%,100%);fill-opacity:1;" d="M 159.71875 106.894531 L 166.71875 106.894531 L 166.71875 117.894531 L 159.71875 117.894531 Z M 159.71875 106.894531 "/>
<g style="fill:rgb(0%,0%,100%);fill-opacity:1;">
  <use xlink:href="#glyph0-2" x="159.71875" y="115.557617"/>
</g>
<path style="fill:none;stroke-width:1.2;stroke-linecap:butt;stroke-linejoin:miter;stroke:rgb(0%,0%,0%);stroke-opacity:1;stroke-miterlimit:10;" d="M 188.851562 122.082031 L 198.128906 113.515625 "/>
<path style="fill:none;stroke-width:1.2;stroke-linecap:butt;stroke-linejoin:miter;stroke:rgb(100%,0%,0%);stroke-opacity:1;stroke-miterlimit:10;" d="M 198.128906 113.515625 L 207.410156 104.949219 "/>
<path style="fill:none;stroke-width:1.2;stroke-linecap:butt;stroke-linejoin:miter;stroke:rgb(0%,0%,0%);stroke-opacity:1;stroke-miterlimit:10;" d="M 184.820312 117.714844 L 194.097656 109.148438 "/>
<path style="fill:none;stroke-width:1.2;stroke-linecap:butt;stroke-linejoin:miter;stroke:rgb(100%,0%,0%);stroke-opacity:1;stroke-miterlimit:10;" d="M 194.097656 109.148438 L 203.378906 100.582031 "/>
<path style="fill:none;stroke-width:1.2;stroke-linecap:butt;stroke-linejoin:miter;stroke:rgb(0%,0%,0%);stroke-opacity:1;stroke-miterlimit:10;" d="M 186.835938 119.898438 L 189.613281 132.21875 "/>
<path style="fill:none;stroke-width:1.2;stroke-linecap:butt;stroke-linejoin:miter;stroke:rgb(0%,0%,100%);stroke-opacity:1;stroke-miterlimit:10;" d="M 189.613281 132.21875 L 192.394531 144.539062 "/>
<path style=" stroke:none;fill-rule:nonzero;fill:rgb(100%,100%,100%);fill-opacity:1;" d="M 201.394531 97.265625 L 209.394531 97.265625 L 209.394531 108.265625 L 201.394531 108.265625 Z M 201.394531 97.265625 "/>
<g style="fill:rgb(100%,0%,0%);fill-opacity:1;">
  <use xlink:href="#glyph0-1" x="201.394531" y="105.928711"/>
</g>
<path style="fill:none;stroke-width:1.2;stroke-linecap:butt;stroke-linejoin:miter;stroke:rgb(0%,0%,100%);stroke-opacity:1;stroke-miterlimit:10;" d="M 192.394531 144.539062 L 204.453125 148.292969 "/>
<path style="fill:none;stroke-width:1.2;stroke-linecap:butt;stroke-linejoin:miter;stroke:rgb(0%,0%,0%);stroke-opacity:1;stroke-miterlimit:10;" d="M 204.453125 148.292969 L 216.511719 152.042969 "/>
<path style=" stroke:none;fill-rule:nonzero;fill:rgb(100%,100%,100%);fill-opacity:1;" d="M 185.394531 139.039062 L 199.394531 139.039062 L 199.394531 150.039062 L 185.394531 150.039062 Z M 185.394531 139.039062 "/>
<g style="fill:rgb(0%,0%,100%);fill-opacity:1;">
  <use xlink:href="#glyph0-2" x="185.394531" y="147.702148"/>
  <use xlink:href="#glyph0-3" x="192.37207" y="147.702148"/>
</g>
<path style="fill:none;stroke-width:1.2;stroke-linecap:butt;stroke-linejoin:miter;stroke:rgb(0%,0%,0%);stroke-opacity:1;stroke-miterlimit:10;" d="M 216.511719 152.042969 L 222.074219 176.683594 "/>
<path style="fill:none;stroke-width:1.2;stroke-linecap:butt;stroke-linejoin:miter;stroke:rgb(0%,0%,0%);stroke-opacity:1;stroke-miterlimit:10;" d="M 222.867188 153.199219 L 227.3125 172.910156 "/>
<path style="fill:none;stroke-width:1.2;stroke-linecap:butt;stroke-linejoin:miter;stroke:rgb(0%,0%,0%);stroke-opacity:1;stroke-miterlimit:10;" d="M 235.070312 134.910156 L 216.511719 152.042969 "/>
<path style="fill:none;stroke-width:1.2;stroke-linecap:butt;stroke-linejoin:miter;stroke:rgb(0%,0%,0%);stroke-opacity:1;stroke-miterlimit:10;" d="M 222.074219 176.683594 L 246.191406 184.1875 "/>
<path style="fill:none;stroke-width:1.2;stroke-linecap:butt;stroke-linejoin:miter;stroke:rgb(0%,0%,0%);stroke-opacity:1;stroke-miterlimit:10;" d="M 246.191406 184.1875 L 264.75 167.054688 "/>
<path style="fill:none;stroke-width:1.2;stroke-linecap:butt;stroke-linejoin:miter;stroke:rgb(0%,0%,0%);stroke-opacity:1;stroke-miterlimit:10;" d="M 244.015625 178.109375 L 258.863281 164.402344 "/>
<path style="fill:none;stroke-width:1.2;stroke-linecap:butt;stroke-linejoin:miter;stroke:rgb(0%,0%,0%);stroke-opacity:1;stroke-miterlimit:10;" d="M 246.191406 184.1875 L 248.972656 196.507812 "/>
<path style="fill:none;stroke-width:1.2;stroke-linecap:butt;stroke-linejoin:miter;stroke:rgb(20%,80%,80%);stroke-opacity:1;stroke-miterlimit:10;" d="M 248.972656 196.507812 L 251.75 208.828125 "/>
<path style="fill:none;stroke-width:1.2;stroke-linecap:butt;stroke-linejoin:miter;stroke:rgb(0%,0%,0%);stroke-opacity:1;stroke-miterlimit:10;" d="M 264.75 167.054688 L 259.191406 142.414062 "/>
<path style="fill:none;stroke-width:1.2;stroke-linecap:butt;stroke-linejoin:miter;stroke:rgb(0%,0%,0%);stroke-opacity:1;stroke-miterlimit:10;" d="M 259.191406 142.414062 L 235.070312 134.910156 "/>
<path style="fill:none;stroke-width:1.2;stroke-linecap:butt;stroke-linejoin:miter;stroke:rgb(0%,0%,0%);stroke-opacity:1;stroke-miterlimit:10;" d="M 255.011719 147.339844 L 235.71875 141.335938 "/>
<path style=" stroke:none;fill-rule:nonzero;fill:rgb(100%,100%,100%);fill-opacity:1;" d="M 248.75 203.328125 L 254.75 203.328125 L 254.75 214.328125 L 248.75 214.328125 Z M 248.75 203.328125 "/>
<g style="fill:rgb(20%,80%,80%);fill-opacity:1;">
  <use xlink:href="#glyph0-4" x="248.75" y="211.991211"/>
</g>
</g>
</svg>

<svg xmlns="http://www.w3.org/2000/svg" xmlns:xlink="http://www.w3.org/1999/xlink" width="300pt" height="300pt" viewBox="0 0 300 300"><defs><symbol overflow="visible"><path d="M.453 1.594v-7.938h4.5v7.938zm.5-.5h3.5v-6.938h-3.5zm0 0"/></symbol><symbol overflow="visible" id="a"><path d="M3.547-5.953c-.65 0-1.164.242-1.547.72-.375.48-.563 1.13-.563 1.952 0 .835.188 1.49.563 1.967.383.48.898.72 1.547.72.644 0 1.156-.24 1.53-.72.376-.476.564-1.132.564-1.968 0-.822-.187-1.474-.562-1.954-.375-.477-.887-.72-1.53-.72zm0-.734c.914 0 1.648.312 2.203.937.55.617.828 1.438.828 2.47 0 1.042-.277 1.87-.828 2.483-.555.617-1.29.922-2.203.922-.93 0-1.668-.305-2.22-.922C.774-1.41.5-2.237.5-3.28c0-1.033.273-1.853.828-2.47.55-.625 1.29-.938 2.22-.938zm0 0"/></symbol><symbol overflow="visible" id="b"><path d="M.89-6.563H2.08l2.906 5.485v-5.484h.86V0H4.656L1.75-5.484V0H.89zm0 0"/></symbol><symbol overflow="visible" id="c"><path d="M.89-6.563h.876v2.688H5v-2.688h.89V0H5v-3.125H1.766V0H.89zm0 0"/></symbol><symbol overflow="visible" id="d"><path d="M.89-6.563h3.766v.75h-2.89v1.938h2.61v.734h-2.61V0H.89zm0 0"/></symbol></defs><g><path fill="#fff" d="M0 0h300v300H0z"/><path d="M35.25 211.53l11.96-4.053" stroke-width="1.2" stroke="#000" stroke-miterlimit="10" fill="none"/><path d="M47.21 207.477l11.962-4.05M59.172 203.426l2.473-12.387" stroke-width="1.2" stroke="#f00" stroke-miterlimit="10" fill="none"/><path d="M61.645 191.04l2.472-12.384" stroke-width="1.2" stroke="#000" stroke-miterlimit="10" fill="none"/><path d="M55.172 197.926h8v11h-8zm0 0" fill="#fff"/><use xlink:href="#a" x="55.172" y="206.589" fill="#f00"/><path d="M64.117 178.656l23.922-8.105M86.078 172.78l9.492 8.337" stroke-width="1.2" stroke="#000" stroke-miterlimit="10" fill="none"/><path d="M95.57 181.117l9.49 8.332" stroke-width="1.2" stroke="#f00" stroke-miterlimit="10" fill="none"/><path d="M90 168.316l9.492 8.332" stroke-width="1.2" stroke="#000" stroke-miterlimit="10" fill="none"/><path d="M99.492 176.648l9.488 8.336" stroke-width="1.2" stroke="#f00" stroke-miterlimit="10" fill="none"/><path d="M88.04 170.55l2.472-12.386" stroke-width="1.2" stroke="#000" stroke-miterlimit="10" fill="none"/><path d="M90.512 158.164l2.472-12.387" stroke-width="1.2" stroke="#00f" stroke-miterlimit="10" fill="none"/><path d="M103.02 181.715h8v11h-8zm0 0" fill="#fff"/><use xlink:href="#a" x="103.02" y="190.378" fill="#f00"/><path d="M92.984 145.777l-9.492-8.332" stroke-width="1.2" stroke="#00f" stroke-miterlimit="10" fill="none"/><path d="M83.492 137.445l-9.488-8.332M116.906 137.676l-11.96 4.05" stroke-width="1.2" stroke="#000" stroke-miterlimit="10" fill="none"/><path d="M104.945 141.727l-11.96 4.05" stroke-width="1.2" stroke="#00f" stroke-miterlimit="10" fill="none"/><path d="M89.984 140.277h7v11h-7zm0 0" fill="#fff"/><use xlink:href="#b" x="89.984" y="148.94" fill="#00f"/><path d="M74.004 129.113l4.94-24.77M78.945 104.344l23.926-8.106" stroke-width="1.2" stroke="#000" stroke-miterlimit="10" fill="none"/><path d="M121.852 112.902m-1.88-2.34l-.687.786m-1.187-3.125l-1.375 1.566m-.5-3.91l-2.067 2.35m.192-4.69l-2.754 3.132m.875-5.473l-3.44 3.917m1.564-6.262l-4.13 4.704m2.255-7.044L103.9 102m2.942-7.824l-5.504 6.27m4.472-7.56l-5.882 6.7" stroke="#000" stroke-miterlimit="10" fill="none"/><path d="M121.852 112.902l-4.946 24.774M121.852 112.902l7.503-24.117M142.47 127.496l-20.618-14.594M129.355 88.785l25.258-.316M154.613 88.47l4.05 11.964" stroke-width="1.2" stroke="#000" stroke-miterlimit="10" fill="none"/><path d="M158.664 100.434l4.055 11.96M162.72 112.395l-10.126 7.55" stroke-width="1.2" stroke="#00f" stroke-miterlimit="10" fill="none"/><path d="M152.594 119.945l-10.125 7.55" stroke-width="1.2" stroke="#000" stroke-miterlimit="10" fill="none"/><path d="M162.72 112.395l12.057 3.753" stroke-width="1.2" stroke="#00f" stroke-miterlimit="10" fill="none"/><path d="M174.777 116.148l12.06 3.75" stroke-width="1.2" stroke="#000" stroke-miterlimit="10" fill="none"/><path d="M159.72 106.895h7v11h-7zm0 0" fill="#fff"/><use xlink:href="#b" x="159.719" y="115.558" fill="#00f"/><path d="M188.852 122.082l9.277-8.566" stroke-width="1.2" stroke="#000" stroke-miterlimit="10" fill="none"/><path d="M198.13 113.516l9.28-8.567" stroke-width="1.2" stroke="#f00" stroke-miterlimit="10" fill="none"/><path d="M184.82 117.715l9.278-8.567" stroke-width="1.2" stroke="#000" stroke-miterlimit="10" fill="none"/><path d="M194.098 109.148l9.28-8.566" stroke-width="1.2" stroke="#f00" stroke-miterlimit="10" fill="none"/><path d="M186.836 119.898l2.777 12.32" stroke-width="1.2" stroke="#000" stroke-miterlimit="10" fill="none"/><path d="M189.613 132.22l2.782 12.32" stroke-width="1.2" stroke="#00f" stroke-miterlimit="10" fill="none"/><path d="M201.395 97.266h8v11h-8zm0 0" fill="#fff"/><use xlink:href="#a" x="201.395" y="105.929" fill="#f00"/><path d="M192.395 144.54l12.058 3.753" stroke-width="1.2" stroke="#00f" stroke-miterlimit="10" fill="none"/><path d="M204.453 148.293l12.06 3.75" stroke-width="1.2" stroke="#000" stroke-miterlimit="10" fill="none"/><path d="M185.395 139.04h14v11h-14zm0 0" fill="#fff"/><g fill="#00f"><use xlink:href="#b" x="185.395" y="147.702"/><use xlink:href="#c" x="192.372" y="147.702"/></g><path d="M216.512 152.043l5.562 24.64M222.867 153.2l4.446 19.71M235.07 134.91l-18.558 17.133M222.074 176.684l24.117 7.504M246.19 184.188l18.56-17.133M244.016 178.11l14.847-13.708M246.19 184.188l2.783 12.32" stroke-width="1.2" stroke="#000" stroke-miterlimit="10" fill="none"/><path d="M248.973 196.508l2.777 12.32" stroke-width="1.2" stroke="#3cc" stroke-miterlimit="10" fill="none"/><path d="M264.75 167.055l-5.56-24.64M259.19 142.414l-24.12-7.504M255.012 147.34l-19.293-6.004" stroke-width="1.2" stroke="#000" stroke-miterlimit="10" fill="none"/><path d="M248.75 203.328h6v11h-6zm0 0" fill="#fff"/><use xlink:href="#d" x="248.75" y="211.991" fill="#3cc"/></g></svg>
